X: 4269
M: C|
L: 1/8
K: A
 (EA)AB c2cA | d2cd e2fg |\
[1 afge d2(cd) | ecAF G2(FE) :|\
[2 afge dfec | A2A2A2 |]
|: (fg) |\
   a2af g2ge | xxxx x2"^2nd"ef & fgfd e2"_1st"ed |\
[1 cdef g2fg | aecA B2 :|\
[2 afge dfec | A2A2A2 |]


